!!!!SEGMENT: pl-gd--ee-1638--008-018_marenzio-luca--il-quarto-libro-de-madrigalia-a-sei-voci-vaneggio-od-e-pur-vero.krn
!!!cenid: 15xx:880
!!!COM: Marenzio, Luca
!!!COM-rismID: pe30003955
!!!CDT: ~1553-1599/08/22
!!!CNT: Italian
!!!GTL: Il Quarto Libro de madrigalia a sei voci
!!!OTL: Vaneggio od è pur vero
!!!OMV: 018
!!!PDT: 1587
!!!AGN:
!!!SMS-siglum: PL-GD
!!!SMS-shelfmark: Ee 1638
!!!SMS-variant:
!!!SMS-altvar:
!!!SMS-shelfwork: 008-018 G
!!!NIFC-rismSourceID: 990039254
!!!NIFC-islandoraID: pl-gd:57883
!!!URL-pdf-islandora: https://repozytorium.nifc.pl/islandora/object/pl-gd%3A57883/datastream/PDF/view
!!!URL-scan: https://polish.musicsources.pl/pl/lokalizacje/galeria/klocki-introligatorskie/655 @EN{Scan on Polish Music Sources Website} @PL{Skany w portalu Dziedzictwo Muzyki Polskiej w otwartym dostępie}
!!!ONB-nifc: UWAGA: zbiór na stronach: Canto: s. 706-716, Alto: s. 554-564, Tenore: s. 402-412, Basso: s.250-260, Quinto: s. 98-108, Sesto: s. 16-26. Uwaga: utwory podzielone wg tytułów w spisach treści dostępnych na końcu każdej księgi głosowej.
!!!AIN: 1 alto 1 bass 1 soprn 1 tenor 2 vox
!!!key: F
**kern	**text	**kern	**text	**kern	**text	**kern	**text	**kern	**text	**kern	**text
*part6	*part6	*part5	*part5	*part4	*part4	*part3	*part3	*part2	*part2	*part1	*part1
*staff6	*staff6	*staff5	*staff5	*staff4	*staff4	*staff3	*staff3	*staff2	*staff2	*staff1	*staff1
*I"SESTO	*	*I"QVINTO	*	*I"BASSO	*	*I"TENORE	*	*I"ALTO	*	*I"CANTO	*
*I'V II	*	*I'V I	*	*I'B	*	*I'T	*	*I'A	*	*I'S	*
*ICvox	*	*ICvox	*	*ICvox	*	*ICvox	*	*ICvox	*	*ICvox	*
*Ivox	*	*Ivox	*	*Ibass	*	*Itenor	*	*Ialto	*	*Isoprn	*
*clefC4	*	*clefC1	*	*clefF4	*	*clefC4	*	*clefC3	*	*clefC1	*
*k[b-]	*	*k[b-]	*	*k[b-]	*	*k[b-]	*	*k[b-]	*	*k[b-]	*
*F:	*	*F:	*	*F:	*	*F:	*	*F:	*	*F:	*
*M2/1	*	*M2/1	*	*M2/1	*	*M2/1	*	*M2/1	*	*M2/1	*
*met(C)	*	*met(C)	*	*met(C)	*	*met(C)	*	*met(C)	*	*met(C)	*
=1-	=1-	=1-	=1-	=1-	=1-	=1-	=1-	=1-	=1-	=1-	=1-
!LO:TX:b:t=VAneggio.	!	!	!	!LO:TX:b:t=VAneggio.	!	!	!	!	!	!	!
00r	.	1r	.	00r	.	2c\	VA-	1r	.	4r	.
.	.	.	.	.	.	.	.	.	.	4cc\	VA-
.	.	.	.	.	.	8d\	-neg-	.	.	8a\	-neg-
.	.	.	.	.	.	8e\	.	.	.	8g\	.
.	.	.	.	.	.	8f\	.	.	.	8a\	.
.	.	.	.	.	.	8d\	.	.	.	8b-\	.
.	.	4r	.	.	.	4e\	.	2c/	VA-	4g/	.
.	.	4cc\	Va-	.	.	4e\	-gio	.	.	4g/	-gio
.	.	8a\	-neg-	.	.	2r	.	8d\	-neg-	2r	.
.	.	8g\	.	.	.	.	.	8e\	.	.	.
.	.	8a\	.	.	.	.	.	8f\	.	.	.
.	.	8b-\	.	.	.	.	.	8d\	.	.	.
=2-	=2-	=2-	=2-	=2-	=2-	=2-	=2-	=2-	=2-	=2-	=2-
.	.	4g/	.	.	.	2c\	Va-	4e\	.	4r	.
.	.	4g/	-gio	.	.	.	.	4e\	-gio	4cc\	Va-
.	.	2r	.	.	.	8d\	-neg-	2r	.	8a\	-neg-
.	.	.	.	.	.	8e\	.	.	.	8g\	.
.	.	.	.	.	.	8f\	.	.	.	8a\	.
.	.	.	.	.	.	8d\	.	.	.	8b-\	.
.	.	4r	.	.	.	4e\	.	2c/	Va-	4g/	.
.	.	4cc\	Va-	.	.	4e\	-gio	.	.	4g/	-gio
.	.	8a\	-neg-	.	.	2r	.	8d\	-neg-	2r	.
.	.	8g\	.	.	.	.	.	8e\	.	.	.
.	.	8a\	.	.	.	.	.	8f\	.	.	.
.	.	8b-\	.	.	.	.	.	8d\	.	.	.
=3-	=3-	=3-	=3-	=3-	=3-	=3-	=3-	=3-	=3-	=3-	=3-
00r	.	4.g/	.	00r	.	4r	.	4.e\	.	4r	.
.	.	.	.	.	.	4c\	od	.	.	4g/	od
.	.	8e/	-gio od	.	.	.	.	8c/	-gio od	.	.
.	.	4f/	è	.	.	4B-\	è	4d\	è	4b-\	è
.	.	4g/	pur	.	.	4G/	pur	4d\	pur	4b-\	pur
*	*	*	*	*	*	*	*	*	*	*custos:cc	*
!	!	!	!	!	!	!	!	!	!	!LO:LB:g=original	!
.	.	1a	ve-	.	.	1F	ve-	1f	ve-	1cc	ve-
*	*	*	*	*	*	*custos:F	*	*	*	*	*
!	!	!	!	!	!	!LO:LB:g=original	!	!	!	!	!
=4-	=4-	=4-	=4-	=4-	=4-	=4-	=4-	=4-	=4-	=4-	=4-
.	.	2a\	-ro	.	.	2F/	-ro	2f\	-ro	2cc\	-ro
*	*	*custos:dd	*	*	*	*	*	*	*	*	*
!	!	!LO:LB:g=original	!	!	!	!	!	!	!	!	!
.	.	4dd\	ch'io	.	.	4B-\	Ch'io	4f\	ch'io	4b-\	Ch'io
.	.	4dd\	mi	.	.	4B-\	mi	4f\	mi	4b-\	mi
*	*	*	*	*	*	*	*	*custos:f	*	*	*
!	!	!	!	!	!	!	!	!LO:LB:g=original	!	!	!
.	.	2.dd\	ſen-	.	.	2.B-\	ſen-	2.f\	ſen-	2.b-\	ſen-
.	.	2cc\	-ta	.	.	2F/	-ta	2f\	-ta	2a\	-ta
=5-	=5-	=5-	=5-	=5-	=5-	=5-	=5-	=5-	=5-	=5-	=5-
00r	.	.	.	00r	.	.	.	.	.	.	.
.	.	4b-\	nel	.	.	4G/	nel	4d\	nel	4g/	nel
.	.	2a\	co-	.	.	2A/	co-	2c#X/	co-	2e/	co-
.	.	2a\	-re	.	.	2A/	-re	2c#/	-re	2e/	-re
.	.	2r	.	.	.	4d\	No-	2r	.	4f/	No-
.	.	.	.	.	.	4e\	-ua	.	.	4g/	-ua
=6-	=6-	=6-	=6-	=6-	=6-	=6-	=6-	=6-	=6-	=6-	=6-
.	.	4cc\	No-	.	.	4f\	fiã-	2r	.	4a\	fiã-
.	.	4dd\	-ua	.	.	8e\	-ma	.	.	8g/	-ma
.	.	.	.	.	.	8d\	d'a-	.	.	8f/	d'a-
!	!	!LO:N:acc=#	!	!	!	!	!	!	!	!	!
.	.	4een\	fiã-	.	.	4c\	-mo-	4e\	No-	1.g	-mo-
.	.	8dd\	-ma	.	.	8B-\	.	4f\	-ua	.	.
.	.	8cc\	d'a-	.	.	8A\	.	.	.	.	.
!	!	!LO:N:acc=#	!	!	!	!	!	!	!	!	!
.	.	4bn\	-mo-	.	.	1G	.	4g\	fiã-	.	.
.	.	2cc\	.	.	.	.	.	8f\	-ma	.	.
.	.	.	.	.	.	.	.	8e\	d'a-	.	.
.	.	.	.	.	.	.	.	2d\	-mo-	.	.
!	!	!LO:N:acc=#	!	!	!	!	!	!	!	!	!
.	.	4bn\	.	.	.	.	.	.	.	.	.
=7-	=7-	=7-	=7-	=7-	=7-	=7-	=7-	=7-	=7-	=7-	=7-
1r	.	2.cc\	-re	1r	.	1C	-re	1e	-re	2.g/	-re
.	.	8b-y\	.	.	.	.	.	.	.	4f/	.
.	.	8a\	.	.	.	.	.	.	.	.	.
1G	Se	1g	.	1C	Se	1c	Se	2r	.	1e	.
.	.	.	.	.	.	.	.	2e\	Se	.	.
=8-	=8-	=8-	=8-	=8-	=8-	=8-	=8-	=8-	=8-	=8-	=8-
4A/	fred-	0r	.	4AA/	ferd-	4c#X\	fred-	4e\	fred-	0r	.
4.A/	-do e-	.	.	4.AA/	-d'e-	4.c#\	-do e-	4.e\	-do e-	.	.
8A/	-ra	.	.	8AA/	-ra	8c#\	-ra	8e\	-ra	.	.
4A/	pur	.	.	4AA/	pur	4c#\	pur	4e\	pur	.	.
*	*	*	*	*	*	*custos:d	*	*	*	*	*
!	!	!	!	!	!	!LO:LB:g=original	!	!	!	!	!
1.A	dian-	.	.	1D	dian-	1d	dian-	1f#X	dian-	.	.
=9-	=9-	=9-	=9-	=9-	=9-	=9-	=9-	=9-	=9-	=9-	=9-
.	.	4a\	Et	2D/	-zi	2d\	-zi	2f#yX\	-zi	1r	.
.	.	4a\	lo-	.	.	.	.	.	.	.	.
!	!	!	!	!	!	!LO:N:acc=#	!	!	!	!	!
2G/	-zi	1dd	-tan	4GG/	Et	4Bn\	Et	4g\	Et	.	.
.	.	.	.	4GG/	lon-	4B\	lon-	4g\	lon	.	.
*	*	*	*ij	*	*	*	*	*custos:d	*	*	*
!	!	!	!	!	!	!	!	!LO:LB:g=original	!	!	!
2r	.	.	.	1G	-tan	1B	-tan	1d	tan	4g/	Et
.	.	.	.	.	.	.	.	.	.	4g/	lon-
2.G/	Et	4g/	Et	.	.	.	.	.	.	2dd\	-tan
.	.	4g/	lo-	.	.	.	.	.	.	.	.
*	*	*custos:cc	*	*	*	*	*	*	*	*custos:g	*
!	!	!LO:LB:g=original	!	!	!	!	!	!	!	!LO:LB:g=original	!
=10-	=10-	=10-	=10-	=10-	=10-	=10-	=10-	=10-	=10-	=10-	=10-
.	.	1cc	-tan	4C/	Et	1r	.	1e	d'og-	2r	.
4G/	lon-	.	.	4C/	lon-	.	.	.	.	.	.
2C/	-tan	.	.	2.c\	-tan	.	.	.	.	4g/	Et
.	.	.	.	.	.	.	.	.	.	4g/	lon-
1r	.	1r	.	.	.	4r	.	4e\	-ni	4cc\	-tan
.	.	.	.	2F\	d'o-	2cny\	d'o-	4.fny\	ſo-	2a\	d'o-
.	.	.	.	.	.	.	.	8e\	.	.	.
.	.	.	.	4G\	-gni	4B-y\	-gni	2d\	.	4g/	-gni
*	*	*	*Xij	*custos:E	*	*	*	*	*	*	*
!	!	!	!	!LO:LB:g=original	!	!	!	!	!	!	!
=11-	=11-	=11-	=11-	=11-	=11-	=11-	=11-	=11-	=11-	=11-	=11-
1r	.	1r	.	1E	fo-	1G	fo-	.	.	1g	fo-
.	.	.	.	.	.	.	.	8cny/	.	.	.
.	.	.	.	.	.	.	.	8B-/	.	.	.
.	.	.	.	.	.	.	.	2c/	.	.	.
*custos:d	*	*	*	*	*	*	*	*	*	*	*
!LO:LB:g=original	!	!	!	!	!	!	!	!	!	!	!
2r	.	2r	.	1D	-co	1A	-co	1d	-co	1f#X	-co
4r	.	4.a\	Che	.	.	.	.	.	.	.	.
4.d\	Che	.	.	.	.	.	.	.	.	.	.
.	.	8a\	m'hà	.	.	.	.	.	.	.	.
=12-	=12-	=12-	=12-	=12-	=12-	=12-	=12-	=12-	=12-	=12-	=12-
.	.	2b-\	ſpin-	4.G\	Che	0r	.	1r	.	0r	.
8d\	m'hà	.	.	.	.	.	.	.	.	.	.
2e\	ſpin-	.	.	.	.	.	.	.	.	.	.
.	.	.	.	8G\	m'hà	.	.	.	.	.	.
.	.	4.cc\	-to	2A\	ſpin-	.	.	.	.	.	.
4.f\	-to	.	.	.	.	.	.	.	.	.	.
.	.	8cc\	s'in-	.	.	.	.	.	.	.	.
.	.	2dd\	-nan-	4.B-\	-to	.	.	4.d\	Che	.	.
8f\	s'in-	.	.	.	.	.	.	.	.	.	.
2g\	-nan-	.	.	.	.	.	.	.	.	.	.
.	.	.	.	8B-\	s'in-	.	.	8d\	m'hà	.	.
.	.	2g/	-zi	2c\	-nan-	.	.	2e\	ſpin-	.	.
2c\	-zi	.	.	.	.	.	.	.	.	.	.
=13-	=13-	=13-	=13-	=13-	=13-	=13-	=13-	=13-	=13-	=13-	=13-
.	.	1r	.	2F\	-zi	2r	.	4.f\	-to	4.a\	Che
4.d\	Che	.	.	.	.	.	.	.	.	.	.
.	.	.	.	.	.	.	.	8f\	s'in-	8a\	m'hà
.	.	.	.	2r	.	4.G/	Che	2g\	-nan-	2b-\	ſpin-
8d\	m'hà	.	.	.	.	.	.	.	.	.	.
2e\	ſpin-	.	.	.	.	.	.	.	.	.	.
.	.	.	.	.	.	8G/	m'hà	.	.	.	.
.	.	2r	.	1r	.	2A/	ſpin-	2c/	-zi	4.cc\	-to
4.f\	-to	.	.	.	.	.	.	.	.	.	.
.	.	.	.	.	.	.	.	.	.	8cc\	s'in-
*	*	*	*ij	*	*	*	*	*	*	*	*
.	.	4.d/	Che	.	.	4.B-\	-to	4r	.	2dd\	-nan-
8f\	s'in-	.	.	.	.	.	.	.	.	.	.
*	*	*	*	*	*	*	*	*	*ij	*	*
2g\	-nan-	.	.	.	.	.	.	4.G/	Che	.	.
.	.	8d/	m'hà	.	.	8B-\	s'in-	.	.	.	.
=14-	=14-	=14-	=14-	=14-	=14-	=14-	=14-	=14-	=14-	=14-	=14-
.	.	2e/	ſpin-	4.C/	Che	2c\	-nan-	.	.	2cc\	-zi
.	.	.	.	.	.	.	.	8G/	m'hà	.	.
4c\	-zi	.	.	.	.	.	.	2A/	ſpin-	.	.
.	.	.	.	8C/	m'hà	.	.	.	.	.	.
2r	.	4.f/	-to	2D/	ſpin-	2F/	-zi	.	.	2r	.
.	.	.	.	.	.	.	.	4.Bn/	-to	.	.
.	.	8f/	s'in-	.	.	.	.	.	.	.	.
2r	.	2g/	-nan-	4.E\	-to	1r	.	.	.	2r	.
.	.	.	.	.	.	.	.	8B/	s'in-	.	.
.	.	.	.	.	.	.	.	2c/	-nan-	.	.
.	.	.	.	8E\	s'in-	.	.	.	.	.	.
4r	.	2c/	-zi	2F\	-nan-	.	.	.	.	2a\	Ch'io
4c\	Ch'io	.	.	.	.	.	.	4F/	-zi	.	.
*	*	*	*Xij	*	*	*	*	*custos:f	*Xij	*	*
!	!	!	!	!	!	!	!	!LO:LB:g=original	!	!	!
=15-	=15-	=15-	=15-	=15-	=15-	=15-	=15-	=15-	=15-	=15-	=15-
1d	n'ar-	1r	.	1BB-	-zi	0r	.	1f	Ch'io	1.b-	n'ar-
1c	-d'a	2r	.	1r	.	.	.	8g\	n'ar-	.	.
.	.	.	.	.	.	.	.	8f\	.	.	.
.	.	.	.	.	.	.	.	8e\	.	.	.
.	.	.	.	.	.	.	.	8d\	.	.	.
.	.	2cc\	Ch'io	.	.	.	.	4e\	.	1a\	-do à
.	.	.	.	.	.	.	.	4c/	-do à	.	.
*custos:B-	*	*	*	*	*	*	*	*	*	*custos:g	*
!LO:LB:g=original	!	!	!	!	!	!	!	!	!	!LO:LB:g=original	!
=16-	=16-	=16-	=16-	=16-	=16-	=16-	=16-	=16-	=16-	=16-	=16-
2.B-\	po-	1dd	n'ar-	0r	.	1r	.	8f\	po-	.	.
.	.	.	.	.	.	.	.	8e\	.	.	.
.	.	.	.	.	.	.	.	8d\	.	.	.
.	.	.	.	.	.	.	.	8c\	.	.	.
.	.	.	.	.	.	.	.	4d\	.	2.g/	po-
4B-\	-co à	.	.	.	.	.	.	4G/	-co à	.	.
1A	po-	1cc	-d'à	.	.	2r	.	8c/	po-	.	.
.	.	.	.	.	.	.	.	8B-y/	.	.	.
.	.	.	.	.	.	.	.	8A/	.	4fny/	-co à
.	.	.	.	.	.	.	.	8G/	.	.	.
.	.	.	.	.	.	2c\	Ch'io	4A/	.	2.f/	po-
.	.	.	.	.	.	.	.	4F/	-co	.	.
*	*	*	*	*	*	*custos:d	*	*	*	*	*
!	!	!	!	!	!	!LO:LB:g=original	!	!	!	!	!
=17-	=17-	=17-	=17-	=17-	=17-	=17-	=17-	=17-	=17-	=17-	=17-
1G	-co	2.b-\	po-	2r	.	8d\	n'ar-	0r	.	.	.
.	.	.	.	.	.	8c\	.	.	.	.	.
.	.	.	.	.	.	8B-\	.	.	.	4e/	.
.	.	.	.	.	.	8A\	.	.	.	.	.
.	.	.	.	2G\	Ch'io	4B-\	.	.	.	2d/	.
.	.	4b-\	-co à	.	.	4G/	-do à	.	.	.	.
*	*	*	*	*custos:A	*	*	*	*	*	*	*
!	!	!	!	!LO:LB:g=original	!	!	!	!	!	!	!
1r	.	1a	po-	8A\	n'ar-	8c\	po-	.	.	2c/	-co
.	.	.	.	8G\	.	8B-\	.	.	.	.	.
.	.	.	.	8F\	.	8A/	.	.	.	.	.
.	.	.	.	8E\	.	8G/	.	.	.	.	.
.	.	.	.	4F\	.	4A/	.	.	.	2r	.
.	.	.	.	4D/	-do à	4F/	-co à	.	.	.	.
*	*	*custos:g	*	*	*	*	*	*	*	*	*
!	!	!LO:LB:g=original	!	!	!	!	!	!	!	!	!
=18-	=18-	=18-	=18-	=18-	=18-	=18-	=18-	=18-	=18-	=18-	=18-
2r	.	1g	-co	8G\	po-	8B-\	po-	2r	.	2r	.
.	.	.	.	8F\	.	8A/	.	.	.	.	.
.	.	.	.	8E\	.	8G/	.	.	.	.	.
.	.	.	.	8D\	.	8F/	.	.	.	.	.
4r	.	.	.	4E\	.	4G/	.	2c/	Ch io	2g/	à
4G/	Ch'io	.	.	4C/	-co à	4E/	-co	.	.	.	.
8A/	n'ar-	1r	.	8F\	po-	1r	.	8d\	n'ar-	2.f/	po-
8G/	.	.	.	8E\	.	.	.	8c/	.	.	.
8F/	.	.	.	8D\	.	.	.	2c/	.	.	.
8E/	.	.	.	8C/	.	.	.	.	.	.	.
4F/	.	.	.	2D/	.	.	.	.	.	.	.
4D/	-d'a	.	.	.	.	.	.	4B-/	-da à	4f/	-co à
=19-	=19-	=19-	=19-	=19-	=19-	=19-	=19-	=19-	=19-	=19-	=19-
8G/	po-	0r	.	1C	-co	2r	.	4B-/	po-	4.e/	po-
8F/	.	.	.	.	.	.	.	.	.	.	.
8E/	.	.	.	.	.	.	.	4A/	-co a	.	.
8D/	.	.	.	.	.	.	.	.	.	8f/	.
*	*	*	*	*	*	*	*	*custos:G	*	*	*
!	!	!	!	!	!	!	!	!LO:LB:g=original	!	!	!
4E/	.	.	.	.	.	2e\	à	4G/	po-	8g/	.
.	.	.	.	.	.	.	.	.	.	8e/	.
4C/	-co à	.	.	.	.	.	.	4c/	-co	4.a\	.
8c\	po-	.	.	1r	.	8e\	po-	2r	.	.	.
8B-\	.	.	.	.	.	8d\	.	.	.	8g/	.
8A/	.	.	.	.	.	8c\	.	.	.	2g/	.
8G/	.	.	.	.	.	8B-\	.	.	.	.	.
2A/	.	.	.	.	.	1c\	.	4r	.	.	.
.	.	.	.	.	.	.	.	4c/	à	4f#X/	.
*custos:G	*	*	*	*	*	*	*	*	*	*	*
!LO:LB:g=original	!	!	!	!	!	!	!	!	!	!	!
=20-	=20-	=20-	=20-	=20-	=20-	=20-	=20-	=20-	=20-	=20-	=20-
1G	-co	1r	.	1r	.	.	.	2e\	po-	1g	-co
!	!	!	!	!	!	!LO:N:acc=#	!	!	!	!	!
.	.	.	.	.	.	2Bn\	-co	2d\	-co	.	.
4r	.	4r	.	4r	.	1r	.	4r	.	1r	.
4c\	Il	4g/	Il	4C/	Il	.	.	4e\	Il	.	.
*	*	*	*	*custos:C	*	*	*	*	*	*	*
!	!	!	!	!LO:LB:g=original	!	!	!	!	!	!	!
4c\	mio	4g/	mio	4C/	mio ar-	.	.	4e\	mio ar-	.	.
4.c\	ar-	4.a\	ar-	4.F\	-di-	.	.	4.f\	-di-	.	.
*	*	*	*	*	*	*custos:G	*	*	*	*	*
!	!	!	!	!	!	!LO:LB:g=original	!	!	!	!	!
=21-	=21-	=21-	=21-	=21-	=21-	=21-	=21-	=21-	=21-	=21-	=21-
.	.	.	-di-	.	.	4r	.	.	.	1r	.
8d\	-di-	8a\	-to	8D/	-to	.	.	8f\	-to	.	.
!	!	!LO:N:acc=#	!	!	!	!	!	!	!	!	!
4d\	-to	4bn\	pen-	4G\	pen-	4G/	Il	4g\	pen-	.	.
2e\	pen-	4cc\	-ſie-	4C/	-ſie-	4G/	mio ar	4g\	-ſie-	.	.
.	.	4cc\	-ro	4C/	-ro	4.c\	-di-	4g\	-ro	.	.
4.A/	-ſie-	1r	.	2F\	Va-	.	.	1r	.	4r	.
.	.	.	.	.	.	8A/	-to	.	.	.	.
.	.	.	.	.	.	4d\	pen-	.	.	4a\	Il
8B-\	.	.	.	.	.	.	.	.	.	.	.
*	*	*	*	*	*	*	*	*	*	*custos:g	*
!	!	!	!	!	!	!	!	!	!	!LO:LB:g=original	!
2c\	-ro	.	.	4E\	-go	4G/	-ſie-	.	.	4g/	mio ar
.	.	.	.	4E\	di	4G/	-ro	.	.	4.cc\	-di-
=22-	=22-	=22-	=22-	=22-	=22-	=22-	=22-	=22-	=22-	=22-	=22-
1r	.	1r	.	4F\	quel	1r	.	2f\	Va-	.	.
.	.	.	.	.	.	.	.	.	.	8a\	-to
.	.	.	.	4D/	ſplen-	.	.	.	.	4dd\	pen-
.	.	.	.	2C/	-do-	.	.	4e\	-go	4g/	-ſie-
.	.	.	.	.	.	.	.	4e\	di	4g/	-ro
4r	.	2b-y\	Va-	2BB-/	-re	2B-y\	Va-	4f\	quel	1r	.
4F/	Il	.	.	.	.	.	.	4d\	ſplen-	.	.
4F/	mio	4cc\	-go	2r	.	4A/	-go	2c/	-do-	.	.
4.f\	ar-	4cc\	di	.	.	4A/	di	.	.	.	.
=23-	=23-	=23-	=23-	=23-	=23-	=23-	=23-	=23-	=23-	=23-	=23-
.	.	4dd\	quel	1r	.	4B-\	quel	2B-/	-re	0r	.
8d\	-di-	.	.	.	.	.	.	.	.	.	.
4g\	-to	4b-\	ſplen-	.	.	4G/	ſplen-	.	.	.	.
4c\	pen-	2a\	-do-	.	.	2F/	-do-	2r	.	.	.
4c\	-ſie-	.	.	.	.	.	.	.	.	.	.
*	*	*	*	*	*	*	*	*custos:G	*	*	*
!	!	!	!	!	!	!	!	!LO:LB:g=original	!	!	!
2e\	-ro	1g	-re	2C/	Va-	2c\	-re	4r	.	.	.
.	.	.	.	.	.	.	.	4G/	Il	.	.
!	!	!	!	!LO:N:acc=#	!	!	!	!	!	!	!
4d\	Va-	.	.	4BBn/	-go	2r	.	4G/	mio ar-	.	.
4d\	-go di	.	.	4BB/	di	.	.	4.g\	-di-	.	.
*custos:e	*	*	*	*	*	*	*	*	*	*	*
!LO:LB:g=original	!	!	!	!	!	!	!	!	!	!	!
=24-	=24-	=24-	=24-	=24-	=24-	=24-	=24-	=24-	=24-	=24-	=24-
4.e\	quel	1r	.	4C/	quel	1r	.	.	.	2cc\	Va-
.	.	.	.	.	.	.	.	8e\	-to	.	.
.	.	.	.	4AA/	ſplen-	.	.	4a\	pen-	.	.
8f\	ſplen-	.	.	.	.	.	.	.	.	.	.
*	*	*	*	*custos:AA	*	*	*	*	*	*	*
!	!	!	!	!LO:LB:g=original	!	!	!	!	!	!LO:N:acc=#	!
2g\	-do-	.	.	2GG/	-do-	.	.	4d\	-ſie-	4bn\	-go
.	.	.	.	.	.	.	.	4d\	-ro	4b\	di
1c	-re	4r	.	2FF/	-re	2f\	Va-	1r	.	4cc\	quel
.	.	4f/	Il	.	.	.	.	.	.	4a\	ſplen-
.	.	4g/	mio ar-	2C/	On-	4e\	-go	.	.	2cc\	-do-
.	.	4.a\	-di-	.	.	4e\	di	.	.	.	.
=25-	=25-	=25-	=25-	=25-	=25-	=25-	=25-	=25-	=25-	=25-	=25-
2r	.	.	.	4.D/	-de	4f\	quel	2r	.	1fny	-re
.	.	8f/	-to	.	.	.	.	.	.	.	.
.	.	4b-\	pen-	.	.	4d\	ſplẽ(n)-	.	.	.	.
.	.	.	.	8E\	ne	.	.	.	.	.	.
*	*	*custos:a	*	*	*	*	*	*	*	*	*
!	!	!LO:LB:g=original	!	!	!	!	!	!	!	!	!
4r	.	4a\	ſie-	4F\	vien	2c\	-do-	2f\	Il	.	.
4c\	On-	4a\	-ro	4F\	l'ar-	.	.	.	.	.	.
*	*	*	*	*	*	*custos:B-	*	*	*	*	*
!	!	!	!	!	!	!LO:LB:g=original	!	!	!	!	!
4d\	-de	2r	.	8BB-y/	-do-	2B-\	-re	2f\	mio ar-	2r	.
.	.	.	.	8C/	.	.	.	.	.	.	.
4d\	ne	.	.	8D/	.	.	.	.	.	.	.
.	.	.	.	8E\	.	.	.	.	.	.	.
4c\	vien	2a\	Il	8F\	.	2r	.	4.f\	-di-	4r	.
.	.	.	.	8G\	.	.	.	.	.	.	.
4r	.	.	.	8A\	.	.	.	.	.	4f/	Il
.	.	.	.	8B-\	.	.	.	8d\	-to	.	.
=26-	=26-	=26-	=26-	=26-	=26-	=26-	=26-	=26-	=26-	=26-	=26-
4.c\	l'ar-	4g/	mio ar-	8c\	.	1r	.	4g\	pen-	4e/	mio
.	.	.	.	8B-\	.	.	.	.	.	.	.
.	.	4.a\	-di-	8A\	.	.	.	4.c/	-ſie-	4.f/	ar-
8B-\	.	.	.	8G\	.	.	.	.	.	.	.
8A\	.	.	.	4F\	.	.	.	.	.	.	.
8B-\	.	8f/	-to	.	.	.	.	16B-/	.	8d/	-di-
.	.	.	.	.	.	.	.	16A/	.	.	.
2c\	-do-	4cc\	pen-	8E\	.	.	.	4G/	.	4g/	-to
.	.	.	.	8D\	.	.	.	.	.	.	.
*	*	*	*	*custos:C	*	*	*	*	*	*	*
!	!	!	!	!LO:LB:g=original	!	!	!	!	!	!	!
.	.	2cc\	-ſie-	2C/	.	2r	.	2c/	-ro	4e/	pen-
8B-\	.	.	.	.	.	.	.	.	.	2f/	-ſie-
8A\	.	.	.	.	.	.	.	.	.	.	.
2G/	.	2cc\	-ro	2C/	-re	2c\	Il	4r	.	.	.
.	.	.	.	.	.	.	.	4c/	Il	4e/	.
=27-	=27-	=27-	=27-	=27-	=27-	=27-	=27-	=27-	=27-	=27-	=27-
4F/	-re	1r	.	0r	.	4A/	mio ar-	4c/	mio ar-	4.f/	.
4f\	Il	.	.	.	.	4.B-\	-di-	4.d\	-di-	.	.
.	.	.	.	.	.	.	.	.	.	8d/	.
4d\	mio ar	.	.	.	.	.	.	.	.	2g/	-ro
.	.	.	.	.	.	8G/	-to	8g\	-to	.	.
4.c\	-di-	.	.	.	.	4c\	pen-	4e\	pen-	.	.
*	*	*	*	*	*	*	*	*custos:f	*	*	*
!	!	!	!	!	!	!	!	!LO:LB:g=original	!	!	!
.	.	2cc\	Va-	.	.	4F/	-ſie-	8f\	-ſie-	2r	.
8B-\	-to	.	.	.	.	.	.	8e\	.	.	.
4A/	pen-	.	.	.	.	4F/	-ro	8d\	.	.	.
.	.	.	.	.	.	.	.	8c\	.	.	.
*custos:G	*	*	*	*	*	*	*	*	*	*	*
!LO:LB:g=original	!	!LO:N:acc=#	!	!	!	!	!	!	!	!	!
4G/	-ſie-	4bn\	-go	.	.	2r	.	2d\	.	4r	.
4G/	-ro	4b\	di	.	.	.	.	.	.	4g/	On-
=28-	=28-	=28-	=28-	=28-	=28-	=28-	=28-	=28-	=28-	=28-	=28-
1r	.	4cc\	quel	2F\	Va-	1r	.	1c	-ro	4.a\	-de
.	.	4a\	ſplen-	.	.	.	.	.	.	.	.
.	.	.	.	.	.	.	.	.	.	8b-y\	ne
.	.	2g/	-do-	4E\	-go	.	.	.	.	4cc\	vien
.	.	.	.	4E\	di	.	.	.	.	4cc\	l'ar-
2r	.	4.a\	-re	4F\	quel	2f\	Va-	1r	.	8f/	-do-
.	.	.	.	.	.	.	.	.	.	8g\	.
.	.	.	.	4D/	ſplen-	.	.	.	.	8a\	.
.	.	16g/	.	.	.	.	.	.	.	8b-\	.
.	.	16f/	.	.	.	.	.	.	.	.	.
4r	.	2g/	.	2C/	-do-	4e\	-go	.	.	2cc\	.
4G/	On-	.	.	.	.	4e\	di	.	.	.	.
=29-	=29-	=29-	=29-	=29-	=29-	=29-	=29-	=29-	=29-	=29-	=29-
4.A/	-de	0r	.	2F\	-re	4f\	quel	2f\	Va-	4cc\	-re
.	.	.	.	.	.	4F/	ſplen-	.	.	4a\	Va-
8B-\	ne	.	.	.	.	.	.	.	.	.	.
4c\	vien	.	.	2r	.	2C/	-do-	4e\	-go	4g/	-go
4c\	l'ar-	.	.	.	.	.	.	4e\	di	4g/	di
8F/	-do-	.	.	2r	.	1c	-re	4a\	quel	4f/	quel
8G/	.	.	.	.	.	.	.	.	.	.	.
8A/	.	.	.	.	.	.	.	4a\	ſplen-	4f/	ſplen-
8B-\	.	.	.	.	.	.	.	.	.	.	.
8c\	.	.	.	2C/	Va-	.	.	2g\	-do-	2e/	-do-
8d\	.	.	.	.	.	.	.	.	.	.	.
8e\	.	.	.	.	.	.	.	.	.	.	.
8f\	.	.	.	.	.	.	.	.	.	.	.
=30-	=30-	=30-	=30-	=30-	=30-	=30-	=30-	=30-	=30-	=30-	=30-
!	!	!	!	!LO:N:acc=#	!	!	!	!	!	!	!
2.g\	.	2r	.	4BBn/	-go	1r	.	4g\	-re	2d/	-re
.	.	.	.	4BB/	di	.	.	4d\	On-	.	.
.	.	2cc\	Va-	4C/	quel	.	.	4.e\	-de	2r	.
4c\	-re	.	.	4AA/	ſplen-	.	.	.	.	.	.
.	.	.	.	.	.	.	.	8f\	ne	.	.
!	!	!LO:N:acc=#	!	!	!	!	!	!	!	!	!
2r	.	4bn\	-go	2GG/	-do-	4r	.	4g\	vien	1r	.
.	.	4b\	di	.	.	4G/	On-	4g\	l'ar-	.	.
*	*	*custos:cc	*	*	*	*	*	*	*	*	*
!	!	!LO:LB:g=original	!	!	!	!	!	!	!	!	!
2f\	Va-	4cc\	quel	2FF/	-re	4.A/	-de	4.c/	-do-	.	.
.	.	4a\	ſplen-	.	.	.	.	.	.	.	.
.	.	.	.	.	.	8B-\	ne	8d\	.	.	.
*	*	*	*	*	*	*custos:c	*	*custos:e	*	*	*
!	!	!	!	!	!	!LO:LB:g=original	!	!LO:LB:g=original	!	!	!
=31-	=31-	=31-	=31-	=31-	=31-	=31-	=31-	=31-	=31-	=31-	=31-
4e\	-go	2g/	-do-	2r	.	4c\	vien	8e\	.	1r	.
.	.	.	.	.	.	.	.	8f\	.	.	.
4e\	di	.	.	.	.	4c\	l'ar-	8g\	.	.	.
.	.	.	.	.	.	.	.	8e\	.	.	.
4f\	quel	4f/	-re	2D/	On-	8F/	-do-	2a\	.	.	.
.	.	.	.	.	.	8G/	.	.	.	.	.
*	*	*	*ij	*	*	*	*	*	*	*	*
4F/	ſplen-	4f/	Va-	.	.	8A/	.	.	.	.	.
.	.	.	.	.	.	8B-\	.	.	.	.	.
*custos:G	*	*	*	*	*	*	*	*	*	*custos:cc	*
!LO:LB:g=original	!	!	!	!	!	!	!	!	!	!LO:LB:g=original	!
2G/	-do-	4e/	-go	4.E\	-de	4c\	.	1g	-re	4r	.
.	.	4e/	di	.	.	4C/	-re	.	.	4cc\	Va-
.	.	.	.	8F\	ne	.	.	.	.	.	.
*	*	*	*	*custos:G	*	*	*	*	*	*	*
!	!	!	!	!LO:LB:g=original	!	!	!	!	!	!LO:N:acc=#	!
2G/	-re	4d/	quel	4G\	vien	2r	.	.	.	4bn\	-go
.	.	2g/	splen-	4GG/	On-	.	.	.	.	4b\	di
=32-	=32-	=32-	=32-	=32-	=32-	=32-	=32-	=32-	=32-	=32-	=32-
2r	.	.	.	4.AA/	-de	1c	On-	2r	.	4cc\	quel
.	.	2f/	-do-	.	.	.	.	.	.	4a\	ſplen-
.	.	.	.	8BB-y/	ne	.	.	.	.	.	.
2G/	On-	.	.	4C/	vien	.	.	4r	.	2g/	-do-
.	.	4e/	-re	4C/	l'ar-	.	.	4g\	On	.	.
2A/	-de	1r	.	8FF/	-do-	2c\	-de	2f\	de	2cc\	-re
.	.	.	.	8GG/	.	.	.	.	.	.	.
.	.	.	.	8AA/	.	.	.	.	.	.	.
.	.	.	.	8BB-/	.	.	.	.	.	.	.
2G/	ne	.	.	8C/	.	2c\	ne	2e\	ne	4r	.
.	.	.	.	8D\	.	.	.	.	.	.	.
.	.	.	.	8E\	.	.	.	.	.	4g/	On-
.	.	.	.	8F\	.	.	.	.	.	.	.
*	*	*	*Xij	*	*	*	*	*	*	*	*
=33-	=33-	=33-	=33-	=33-	=33-	=33-	=33-	=33-	=33-	=33-	=33-
!	!	!	!	!	!	!LO:N:acc=#	!	!	!	!	!
4G/	vien	4r	.	8G\	.	4Bn\	vien	4d\	vien	4.g/	-de
.	.	.	.	8F\	.	.	.	.	.	.	.
4C/	l'ar-	4g/	On-	8E\	.	4.c\	l'ar-	4e\	l'ar-	.	.
.	.	.	.	8D\	.	.	.	.	.	8f/	ne
8C/	-do-	4.g/	-de	4.C/	.	.	.	4e\	-do-	4e/	vien
8D/	.	.	.	.	.	16B\	.	.	.	.	.
.	.	.	.	.	.	16A\	-do-	.	.	.	.
8E/	.	.	.	.	.	4G/	.	4c/	-re	4g/	On-
8F/	.	8a\	ne	16BB-/	.	.	.	.	.	.	.
.	.	.	.	16AA/	.	.	.	.	.	.	.
8G/	.	4b-y\	vien	0GG	.	0G	.	4r	.	4.g/	-de
8A/	.	.	.	.	.	.	.	.	.	.	.
8B-\	.	4g/	l'ar-	.	.	.	.	4d\	l'ar-	.	.
8c\	.	.	.	.	.	.	.	.	.	8a\	ne
8d\	.	8g\	-do-	.	.	.	.	4.G/	-do-	4b-y\	vien
8c\	.	8a\	.	.	.	.	.	.	.	.	.
8B-\	.	8b-\	.	.	.	.	.	.	.	4g/	l'ar-
8A\	.	8cc\	.	.	.	.	.	8A/	.	.	.
=34-	=34-	=34-	=34-	=34-	=34-	=34-	=34-	=34-	=34-	=34-	=34-
!	!	!	!	!	!	!	!	!LO:N:acc=#	!	!	!
4G/	.	1dd	.	.	.	.	.	4Bn/	.	1g	-do-
8F/	.	.	.	.	.	.	.	2c/	.	.	.
8E/	.	.	.	.	.	.	.	.	.	.	.
2D/	.	.	.	.	.	.	.	.	.	.	.
!	!	!	!	!	!	!	!	!LO:N:acc=#	!	!	!
.	.	.	.	.	.	.	.	4Bn/	.	.	.
!	!	!LO:N:acc=#	!	!	!	!	!	!	!	!	!
00C	-re.	00een	-re.	00C	-re.	00G	-re.	00c	-re.	00g	-re
==	==	==	==	==	==	==	==	==	==	==	==
*-	*-	*-	*-	*-	*-	*-	*-	*-	*-	*-	*-
!!!system-decoration: [(s1,s2,s3,s4,s5,s6)]
!!!ENC: Andrzej Gręziak
!!!END: 2022-06-15
!!!ENC: Natalia Wrzos
!!!END: 2022-07-26
